X: 16272
T: Grey Corries, The
R: reel
M: 4/4
K: Aminor
|:A2AB cBAc|BAGB dBGB|A2AB cBAc|1 BAGB ABcB:|2 BAGB ABcd||
e2ef edce|dBgB aBgB|e2ef edce|dcBd cBAc|
e2ef edce|dBgB aBgB|edce dcBd|cBAc BAGB||

